!!!OTL: 1625. Der verlorene Sohn.
!!!ARE: Europa, Mitteleuropa, Deutschland, Hessen, Wetterau, Eberstadt
!!!SCT: E1625
!!!TXL: @@DE
!!!YEM: Copyright 1995, estate of Helmut Schaffrath.
**kern	**text
*ICvox	*
*M3/4	*
*k[b-e-]	*
*B-:	*
!LO:TX:a:t=Mel. aus Eberſtadt bei Butʒbach (Wetterau).	!
{4f	Ʒu
=1	=1
8.b-	Haus
16f	ge-
4f	-denkt
4b-	man
=2	=2
8.g	mei-
16g	-ner
4.g}	nicht,
{8b-	hat
=3	=3
8a	mei-
8b-	-ner
4cc	ganʒ
4ee-	ver-
=4	=4
8ee-L	-geſ-
8ffJ	.
4dd;}	-ſen,
{4f	Weil
=5	=5
8.b-	ich
16f	ſo
4f	lump
4b-	und
=6	=6
8.g	lü-
16g	-der-
4.g}	-lich
{8b-	im
=7	=7
8a	Sau-
8b-	-fen
4cc	und
4ee-	im
=8	=8
8ee-L	Freſ-
8ffJ	.
4dd;}	-ſen.
{4b-	Da
=9	=9
8b-	wird
8dd	ge-
4.ff	-küßt
8dd	und
=10	=10
8.dd	ca-
16cc	-reſ-
4.cc}	-ſirt
{8dd	und
=11	=11
8cc	man-
8b-	-ches
4b-	Mäd-
8aL	-chen
8gJ	.
=12	=12
8g	an-
8f	-ge-
4f	-führt.
8r}	.
!LO:TX:a:t=Refr.	!
{8f	Ge-
=13	=13
8d	-duld,
8f	Ge-
4b-	-duld,
4dd	bleibt
=14	=14
4dd	ſchul-
4cc	-dig,
8r}	.
{8cc	und
=15	=15
8dd	da-
8ee-	-bei
4.ff	ſtets
8cc	ge-
=16	=16
4cc	-dul-
4b-}	-dig.
==	==
!!!AGN: Staende -, Handwerker -, Gesellen - Lied; Wanderschaft
!!!ONB: ESAC (Essen Associative Code) Database: ERK3
!!!AMT: simple triple
!!!AIN: vox
!!!EED: Helmut Schaffrath
!!!EEV: 1.0
!!!GTL: Staendelieder (Berufslieder). 8. Handwerkerlieder.
!!!URL-scan: https://rosdok.uni-rostock.de/mcrviewer/recordIdentifier/rosdok_ppn745177999/iview2/phys_0446.iview2?x=-449.8344612962892&y=-6.640514563769102&scale=0.47549036216460333&rotation=0&layout=singlePageLayout
!!!ENC: Anna Maria Matuszewska
!!!EEV: 2025/08/01
*-	*-
